X:3047
T:Polska efter Jon Andersson (Skjeftåsen)
R:Finnskogspols
O:Aspberget, Norra Finnskoga, Värmland
S: Svenska Låtar Värmland 177
M:3/4
L:1/8
K:Am
|: f2 !trill!f3/2e/2 d2 | (3efe (3ded c2 | c3/2B/2 A2 (3^GAB | (3cAc (3B^GB A2 |
f2 !trill!f3/2e/2 d2 | (3efe (3ded c2 | c3/2B/2 A2 ^G/2A/2B/2c/2 | A4 !fine! y y e2 :|
|: e3/2f/2 e3/2^d/2 e3/2^f/2 | ^g3/2a/2 (3bgb a2 | =g3/2^f/2 e3/2^d/2 e3/2f/2 | (3geg (3^f^df e2 |
e3/2f/2 e3/2^d/2 e3/2^f/2 | ^g3/2a/2 (3bgb a2 | =g3/2^f/2 e3/2^d/2 ^d/2e/2f/2g/2 | e4 z2 !D.C.!:|
(:musicend:)
(:music:)
